X: 15829
T: Gordon's Trip To Sydney
R: jig
M: 6/8
K: Gmajor
f|:g2dB2G|DGB dBG|BAB cBc|edc Bdg|
gbgd2B|dBG DGB|cBc DGF|1 GDB, G,2f:|2 GDB, G,B,D||
|:dBG DGB|cBc EAc|BAB cBc|edc Bdg|
BAB DGB|cBc EAc|dBA GDB,|1 CB,A,G,2c:|2 CB,A,G,2||

